X: 4881
T: Braes Of Maas
R: barndance
M: 4/4
K: Dmajor
D2 FA d2 (3gfe|d2 BG BGBd|DAFA defa|bafd ce d2|
DEFA d2 (3gfe|d2 BG BGBd|DAFA defa|bafd cedg||
faaf dfaf|g2 ba gfed|fgaf dfaf|g2 fd cedg|
faaf dfaf|gaba gfed|Adce defd|gbaf efd2||

